X:1
T: Elgin Strathspey and Reel Players' Reel
C:William Macpherson
R:Reel
Q: 232
K:D
M:4/4
L:1/8
A,|:D2 DF AD FD|G,G, G,B, G,G, B,G,|A,A, CA, A,C EG|dd dA dA GE|
D2 DF AD FD|GG GB dB GB|dA FA cA GA|1d2 D2 D2 A,2:|2d2 D2 D2 AG|
|:FF DF AF DF|GG DG Bd BG|cc Ac eg ec|fe dc BA GE|
D2 DF AD FD|G,2 B,B, DG Bd|fa dA =cA ^cA|1d2 f2 D2 AG:|2d2 f2 D3||
